X:91
T:The Oddity
Z:Jack Campin, http://www.campin.me.uk/
F:Jack Campin's Nine-Note Tunebook
% last edit 03-02-2013
S:Chris Green's website for English country dance tunes
M:3/2
L:1/8
N:bar 6 originally |d2D2 AGED C2A,2|
K:DDor
d4  DEFG A2AB|c2c2 A2A2 EDEC|d4 DEFG A2A2|d2A2 AGFE D4:|
F3A c2A2 c2A2|d2D2 AGED C3A |d4 DEFG A2A2|d2A2 AGFE D4:|

